X:4098
T:Dever the Dancer
S:Treoir, 1991
I:speed 250
M:9/8
K:D
|:BEE BEF G2A | BEE BAG FGA | BEE BEF G2B | dcB ABG FED :|
|:ded cAF G3 | Add def gfe | fed cAF G2A | Bdc ABG FED :|
